!!!OTL: In Epiphania
**kern
*staff1
=--
*clefC1
*k[]
00.r
=-
1g
0a
0cc
1a
=-
1a
1a
1g
2a
2b
2cc
2a
1g
1a
=-
!!linebreak:original
0g
0b
1cc
=-
1dd
1cc
2cc
2cc
2b
2a
1g
1a
=-
!LO:TX:Y=-40:t=P
!LO:TX:Y=-39:t=P
1a
1cc
1cc
1dd
2cc
2b
1a
1g
!!linebreak:original
=-
0g
0a
1.cc
2cc
=-
!LO:TX:Y=-39:t=P
1cc
1.dd
2cc
1b
1a
=-
!LO:TX:Y=-36:t=P
2dd
2cc
0a
0cc
!!linebreak:original
=-
!LO:TX:Y=-39:t=P
1g
1a
1cc
1cc
=-
!LO:TX:Y=-39:t=P
1cc
1cc
1cc
1cc
=-
!LO:TX:Y=-39:t=P
!LO:TX:Y=-39:t=P
!LO:TX:Y=-39:t=P
1dd
1dd
1cc
1a
=-
1cc
1.cc
2cc
1cc
=-
!LO:TX:Y=-37:t=P
1.dd
2dd
1cc
2dd
2cc
=-
!LO:TX:Y=-361:t=P
0a
=-
!!linebreak:original
*clefC4
!LO:TX:Y=-42:t=P
1d
2e
2f
2e
2f
2d
=-
!LO:TX:Y=-42:t=P
!LO:TX:Y=-41:t=P
2c
2e
4d
4c
4d
4B
0A
=-
2f
2d
2c
2A
1F
1G
=-
!!pagebreak:original
2f
2e
2d
2c
1d
1d
=-
1e
2f
2e
2f
2d
2c
2e
=-
2d
2c
2d
2B
0A
=-=
*-
!!title: @{OTL}, @{GTL}, ed. @{ENC}
!!!pag:
!!!GTL: Hymnbook C
!!!EFL: 
!!!YEM: Creative Commons CC/BY/NC/SA 4.0
!!!ENC: Marcin Konik
!!!END: 2015-0m-dd
!!!EED: Marcin Konik
!!!EEV: 
!!!ONB: Encoded in vim by Marcin Konik
!!!CharacterEncoding: utf-8
!!!RDF**kern: l=long note in original notation
!!!RDF**kern: i=editorial accidental
!!muse2ps: z14jc180F
!!!COM: Anonim
!!!CDT: [?]
!!!TXO: Polish
!!!ODT: 
!!!GTL: Hymnbook C
!!!ARL: Opactwo św. Wojciecha, Staniątki 
!!!voices:	1
